X: 17591
T: Hodgepig
R: polka
M: 2/4
K: Edorian
eB/B/ eB|e/f/g/f/ e2|fB/B/ fb|ag fd|
eB/B/ eB|e/f/g/f/ e2|fb ag|fd e2:|
eb/b/ eb/b/|ag f2|fb/b/ fb|ag fd|
eb/b/ eb/b/|ag f2|fb ag|fd e2:|

